X:304
T: EIN JAEGER AUS KURPFALZ
N: E1454
O: Europa, Mitteleuropa, Deutschland
R: Staende -, Jaeger - Lied
M: 2/4
L: 1/8
K: G
D | GBBB | B3
d | dccB | BAA
G | FAAA | A3
d | BBAA | G2z
d | d3c | B3
d | gddB | BAA
G | FAAA | A3
d | BBAA | G2z

@@@ Tune index: 4988
